!!!COA: des Prez, Josquin
!!!CDT: ~1450-1521/08/27
!!!COM: Mouton, Jean
!!!OTL: In illo tempore Maria Magdalena
!!!AGN: Motet
!!!SCT: NJE 26.6
!!!SCA: New Josquin Edition 26.6
!!!ONB: also Mou2056 (secure Mouton, Jean)
!!!voices: 4
**kern	**kern	**kern	**kern
*part4	*part3	*part2	*part1
*staff4	*staff3	*staff2	*staff1
*Ivox	*Ivox	*Ivox	*Ivox
*I"Bassus	*I"Tenor	*I"Altus	*I"Superius
*I'B	*I'T	*I'A	*I'S
*>[A,B]	*>[A,B]	*>[A,B]	*>[A,B]
*>A	*>A	*>A	*>A
*clefF4	*clefGv2	*clefGv2	*clefG2
*k[b-]	*k[b-]	*k[b-]	*k[b-]
*d:	*d:	*d:	*d:
*M2/1	*M2/1	*M2/1	*M2/1
*met(C|)	*met(C|)	*met(C|)	*met(C|)
=	=	=	=
!!section: Prima pars: In illo tempore
0r	0r	0r	1g
.	.	.	[1cc
=3	=3	=3	=3
0r	0r	0r	1cc]
.	.	.	1cc
=4	=4	=4	=4
0r	0r	1d	1.dd
.	.	[1f	.
.	.	.	2cc
=5	=5	=5	=5
0r	0r	1f]	1cc
.	.	1f	[1cc
=6	=6	=6	=6
0r	0r	1.a	2cc]
.	.	.	2cc
.	.	.	2cc
.	.	2g	2dd
=7	=7	=7	=7
0r	0r	1g	1ee
.	.	[1f	[1ff
=8	=8	=8	=8
0r	0r	2f]	2ff]
.	.	2f	4ee
.	.	.	4dd
.	.	2f	2cc
.	.	2g	2b-
=9	=9	=9	=9
0r	1r	1a	1cc
.	1G	2.b-	1dd
.	.	4a	.
=10	=10	=10	=10
0r	0c	4g	1cc
.	.	4f	.
.	.	2.g	.
.	.	.	1r
.	.	4f	.
.	.	4e	.
.	.	4d	.
=11	=11	=11	=11
1r	1c	2e	0r
.	.	2c	.
1D	[1d	2.f	.
.	.	4g	.
=12	=12	=12	=12
0F	2d]	0a	0r
.	2c	.	.
.	1c	.	.
=13	=13	=13	=13
1F	1.c	0r	0r
[1A	.	.	.
.	2c	.	.
=14	=14	=14	=14
2A]	2c	0r	0r
2G	2d	.	.
1G	2.e	.	.
.	8dL	.	.
.	8eJ	.	.
=15	=15	=15	=15
1.F	1.f	1r	1a
.	.	[1a	2.cc
2F	4e	.	.
.	4d	.	4b-
=16	=16	=16	=16
2F	2c	2a]	4a
.	.	.	4g
2G	2B-	2g	2.b-
1A	1c	2e	.
.	.	.	4a
.	.	[2f	[2a
=17	=17	=17	=17
1B-	1d	2f]	2a]
.	.	2d	2g
[1A	[1c	1f	[1a
=18	=18	=18	=18
1A]	1c]	1e	1a]
1r	1r	1r	1r
=19	=19	=19	=19
0D	0A	0d	0f
=20	=20	=20	=20
1D	1A	1d	1f
[1G	[1B-	2.d	2.g
.	.	4c	4a
=21	=21	=21	=21
2G]	2B-]	4d	4b-
.	.	4e	4g
2F	1c	2f	2a
1G	.	2e	2g
.	2B-	2d	2b-
=22	=22	=22	=22
1C	2.c	1e	2a
.	.	.	1g
.	4B-	.	.
1D	1A	[1d	.
.	.	.	2f#Xi
=23	=23	=23	=23
0G	1G	1d]	0g
.	1r	2r	.
.	.	2d	.
=24	=24	=24	=24
0r	0r	1g	2r
.	.	.	2g
.	.	2f	1dd
.	.	2g	.
=25	=25	=25	=25
1r	0r	2a	2cc
.	.	2b-	2dd
2r	.	1a	2ee
2D	.	.	2ff
=26	=26	=26	=26
1G	2r	0r	1dd
.	2G	.	.
2F	1d	.	1r
2G	.	.	.
=27	=27	=27	=27
2A	2c	0r	1r
2B-	2d	.	.
1A	2e	.	1cc
.	2f	.	.
=28	=28	=28	=28
0r	1d	2r	1.ff
.	.	2f	.
.	1r	2f	.
.	.	2f	2dd
=29	=29	=29	=29
1r	1c	1g	1ee
2r	[1f	1a	1cc
2F	.	.	.
=30	=30	=30	=30
2F	2f]	0r	0r
2F	2d	.	.
1G	1e	.	.
=31	=31	=31	=31
1A	1c	1r	1r
[1D	[1d	[1f	[1a
=32	=32	=32	=32
2D]	2d]	2f]	2a]
2D	2d	2f	2a
1D	1d	1f	1a
=33	=33	=33	=33
1r	1r	1r	1r
[1F	[1c	[1f	[1a
=34	=34	=34	=34
2F]	2c]	2f]	2a]
2F	2c	2f	2a
1F	1c	1f	[1a
=35	=35	=35	=35
0G	0B-	0d	2a]
.	.	.	4g
.	.	.	4f
.	.	.	1g
=36	=36	=36	=36
0D	1A	0d	1a
.	1r	.	2.f
.	.	.	4g
=37	=37	=37	=37
0r	1f	1r	4a
.	.	.	4b-
.	.	.	2.cc
.	2f	1a	.
.	.	.	4b-
.	2f	.	4cc
.	.	.	4dd
=38	=38	=38	=38
0r	2e	2g	2ee
.	2d	1a	1ff
.	1c	.	.
.	.	2g	2ee
=39	=39	=39	=39
1B-	2r	2.f	2dd
.	2d	.	4cc
.	.	8eL	4b-
.	.	8dJ	.
2B-	2d	2f	1dd
2B-	2d	2g	.
=40	=40	=40	=40
2.A	1e	1.a	1cc
4G	.	.	.
1F	1f	.	2cc
.	.	2g	[2dd
=41	=41	=41	=41
2r	1d	2f	4dd]
.	.	.	4cc
2G	.	4g	4b-
.	.	4f	4a
2G	2.g	4e	1b-
.	.	4d	.
2G	.	[2d	.
.	4f	.	.
=42	=42	=42	=42
1A	4e	2d]	1a
.	4d	.	.
.	2.f	2c	.
1B-	.	1d	1r
.	4e	.	.
.	[2d	.	.
=43	=43	=43	=43
1G	2d]	0r	0r
.	4c	.	.
.	4B-	.	.
2.c	2.A	.	.
4B-	4B-	.	.
=44	=44	=44	=44
4A	2c	0r	1r
4G	.	.	.
2.B-	2.d	.	.
.	.	.	1ff
4A	4c	.	.
4B-	4d	.	.
4c	4e	.	.
=45	=45	=45	=45
1d	4f	0r	2ff
.	4g	.	.
.	2.a	.	2ff
2c	.	.	2ee
.	4g	.	.
2B-	[2g	.	2dd
=46	=46	=46	=46
1A	4g]	1r	1cc
.	4f#Xi	.	.
.	4f#Xi	.	.
.	4e	.	.
1G	1g	1b-	2r
.	.	.	2dd
=47	=47	=47	=47
2r	0r	2b-	2dd
2B-	.	2b-	2dd
1c	.	2a	1ee
.	.	2g	.
=48	=48	=48	=48
2.d	2r	1f	1ff
.	2d	.	.
4c	.	.	.
4B-	2d	2r	1dd
4A	.	.	.
[2G	2d	2g	.
=49	=49	=49	=49
2G]	1e	2g	1r
4F	.	2g	.
4E	.	.	.
1D	1f	1a	2r
.	.	.	2dd
=50	=50	=50	=50
1G	1d	1b-	2dd
.	.	.	2dd
1C	2r	1g	1ee
.	[2c	.	.
=51	=51	=51	=51
0D	2c]	1r	1ff
.	4Bni	.	.
.	4A	.	.
.	1Bni	1f	1dd
=52	=52	=52	=52
0C	0c	2.g	1.ee
.	.	4f	.
.	.	2g	.
.	.	[2a	4dd
.	.	.	4cc
=53	=53	=53	=53
0r	0r	4a]	1cc
.	.	4g	.
.	.	4f	.
.	.	4e	.
.	.	2d	2.dd
.	.	2f	.
.	.	.	4cc
=54	=54	=54	=54
0r	0r	2g	2b-
.	.	2.a	2a
.	.	.	2.b-
.	.	4g	.
.	.	[2g	.
.	.	.	4cc
=55	=55	=55	=55
1r	1d	2g]	1a
.	.	2f#Xi	.
[1c	[1e	1g	1g
=56	=56	=56	=56
2c]	2e]	2c	1r
2B-	4d	2d	.
.	4c	.	.
1A	1c	2e	1cc
.	.	2f	.
=57	=57	=57	=57
1.G	2.d	2.g	2.b-
.	4c	4f	4a
.	2B-	4e	2g
.	.	4d	.
2F	2A	[2d	[2a
=58	=58	=58	=58
1E	2B-	2d]	4a]
.	.	.	4g
.	2c	2c	1g
1D	1A	1d	.
.	.	.	2f#Xi
=59	=59	=59	=59
0G	0G	0d	0g
=60	=60	=60	=60
1r	1r	1r	1r
[1G	[1B-	[1d	[1g
=61	=61	=61	=61
2G]	2B-]	2d]	2g]
2G	2B-	2d	2g
1G	1B-	1d	1g
=62	=62	=62	=62
1r	1r	1r	1r
[1F	[1c	[1f	[1a
=63	=63	=63	=63
2F]	2c]	2f]	2a]
2F	2c	2f	2a
2.F	[1c	1f	1a
4G	.	.	.
=64	=64	=64	=64
2A	2c]	0r	0r
1G	2d	.	.
.	1e	.	.
4F	.	.	.
4E	.	.	.
=65	=65	=65	=65
2.D	2.f	0r	0r
4E	4e	.	.
2F	4d	.	.
.	4c	.	.
[2G	[2B-	.	.
=66	=66	=66	=66
4G]	4B-]	0r	0r
4F	4c	.	.
1B-	4d	.	.
.	4e-Xi	.	.
.	1c	.	.
2A	.	.	.
=67	=67	=67	=67
0B-	1B-	1f	1r
.	1r	2f	[1dd
.	.	2f	.
=68	=68	=68	=68
0r	0r	2g	2dd]
.	.	2f	2dd
.	.	2g	2dd
.	.	2a	2cc
=69	=69	=69	=69
0r	0r	1.b-	2.dd
.	.	.	4ee
.	.	.	1ff
.	.	2a	.
=70	=70	=70	=70
0r	0r	2.g	2ee
.	.	.	1dd
.	.	8fL	.
.	.	8eJ	.
.	.	2.d	.
.	.	.	4cc
.	.	4e	4b-
=71	=71	=71	=71
0r	0r	4f	2.a
.	.	4g	.
.	.	2.a	.
.	.	.	4b-
.	.	.	2cc
.	.	4g	.
.	.	2f	[2dd
=72	=72	=72	=72
1r	0r	1e	2dd]
.	.	.	2cc#Xi
[1G	.	1d	1dd
=73	=73	=73	=73
2G]	1.d	0r	0r
2G	.	.	.
2G	.	.	.
2F	2d	.	.
=74	=74	=74	=74
2G	2d	0r	0r
2A	2c	.	.
[1B-	2.d	.	.
.	4e	.	.
=75	=75	=75	=75
2B-]	1f	0r	0r
2A	.	.	.
2.G	2e	.	.
.	[2d	.	.
8FL	.	.	.
8EJ	.	.	.
=76	=76	=76	=76
2.D	2d]	0r	0r
.	4c	.	.
4E	4B-	.	.
4F	2.A	.	.
4G	.	.	.
[2A	.	.	.
.	4B-	.	.
=77	=77	=77	=77
2A]	2c	0r	0r
2F	1d	.	.
1E	.	.	.
.	2c#Xi	.	.
=78	=78	=78	=78
0D	0d	1r	0r
.	.	1f	.
=79	=79	=79	=79
0r	0r	2g	1dd
.	.	2f	.
.	.	2g	2dd
.	.	2a	2cc
=80	=80	=80	=80
0r	0r	1.b-	2dd
.	.	.	2ee
.	.	.	1ff
.	.	2a	.
=81	=81	=81	=81
1r	0r	2.g	2ee
.	.	.	2.dd
.	.	8fL	.
.	.	8eJ	.
1G	.	2.d	.
.	.	.	4cc
.	.	.	4b-
.	.	4c	4a
=82	=82	=82	=82
2G	0r	2d	2b-
2F	.	2f	2a
2G	.	1e	1g
2A	.	.	.
=83	=83	=83	=83
1.B-	1d	1d	1f
.	2d	1r	1r
2A	2c	.	.
=84	=84	=84	=84
2G	2d	0r	0r
4F	2e	.	.
4E	.	.	.
4D	1f	.	.
4E	.	.	.
4F	.	.	.
4G	.	.	.
=85	=85	=85	=85
2A	2e	1r	0r
2.B-	2.d	.	.
.	.	1d	.
4A	4c	.	.
4G	4B-	.	.
4F	4A	.	.
=86	=86	=86	=86
2G	2B-	1d	0r
2D	1A	.	.
1E	.	1c	.
.	2G	.	.
=87	=87	=87	=87
1D	0A	1d	2r
.	.	.	1dd
1r	.	1e	.
.	.	.	2cc
=88	=88	=88	=88
2.D	2r	0f	2.dd
.	1d	.	.
4E	.	.	4cc
4F	.	.	2a
4G	.	.	.
2A	2c	.	2cc
=89	=89	=89	=89
2.G	2e-X	2r	1b-
.	1d	2g	.
4F	.	.	.
2D	.	2.f	1a
2F	2c	.	.
.	.	4e	.
=90	=90	=90	=90
2G	2B-	2d	2g
2E	2G	2c	1g
1D	1A	1d	.
.	.	.	2f#Xi
=91	=91	=91	=91
0Gl	0Gl	0dl	0gl
!!LO:LB:i:g=z
=92||	=92||	=92||	=92||
*>B	*>B	*>B	*>B
*clefF4	*clefGv2	*clefGv2	*clefG2
*k[b-]	*k[b-]	*k[b-]	*k[b-]
*M2/1	*M2/1	*M2/1	*M2/1
*met(C|)	*met(C|)	*met(C|)	*met(C|)
!!section: Secunda pars: Dic nobis, Maria
!!!OMD: Secunda pars: Dic nobis, Maria
1D	0r	0r	0r
1A	.	.	.
=93	=93	=93	=93
2G	1r	0r	0r
2A	.	.	.
1B-	1G	.	.
=94	=94	=94	=94
2G	1d	0r	0r
2G	.	.	.
2A	2c	.	.
2B-	2d	.	.
=95	=95	=95	=95
1.c	1e	0r	0r
.	2c	.	.
4B-	2c	.	.
4A	.	.	.
=96	=96	=96	=96
2B-	2d	0r	0r
2.A	2e	.	.
.	[1f	.	.
4G	.	.	.
4F	.	.	.
4E	.	.	.
=97	=97	=97	=97
2D	2f]	0r	0r
2.G	4e	.	.
.	4d	.	.
.	2e	.	.
4A	.	.	.
2F	[2d	.	.
=98	=98	=98	=98
1E	2d]	0r	0r
.	2c#Xi	.	.
1D	1d	.	.
=99	=99	=99	=99
0r	0r	1g	1dd
.	.	2g	2dd
.	.	2a	2cc
=100	=100	=100	=100
1r	1r	1b-	1dd
1G	1d	1g	1b-
=101	=101	=101	=101
2G	2d	0r	0r
2A	2c	.	.
1B-	1d	.	.
=102	=102	=102	=102
2G	2B-	0r	0r
1A	1c	.	.
[2G	2B-	.	.
=103	=103	=103	=103
2G]	1A	0r	0r
2F#Xi	.	.	.
1G	1G	.	.
=104	=104	=104	=104
0r	0r	1g	1dd
.	.	2g	2dd
.	.	2a	2cc
=105	=105	=105	=105
0r	0r	1b-	1dd
.	.	2g	2b-
.	.	[2a	[2cc
=106	=106	=106	=106
1r	1r	2a]	2cc]
.	.	1g	2b-
2r	2r	.	1a
2D	2d	2f#Xi	.
=107	=107	=107	=107
2.G	2d	1g	1g
.	2d	.	.
4F	.	.	.
2G	2e	1r	1r
2A	2f	.	.
=108	=108	=108	=108
1G	1g	2r	2r
.	.	2G	2g
1r	1r	2.c	2g
.	.	.	2g
.	.	4B-	.
=109	=109	=109	=109
1r	0r	2c	2a
.	.	2d	2b-
2r	.	1c	1cc
2C	.	.	.
=110	=110	=110	=110
2.C	2r	2.e	1r
.	2c	.	.
4D	.	4f	.
2E	2.c	2g	1cc
2F	.	[2a	.
.	4d	.	.
=111	=111	=111	=111
1G	2e	2a]	1b-
.	1d	2g	.
2.D	.	[1f	2a
.	4c	.	[2dd
4E	4B-	.	.
=112	=112	=112	=112
2F	2A	2f]	4dd]
.	.	.	4cc
1G	2G	2d	1b-
.	2B-	1e	.
2C	2c	.	4a
.	.	.	4g
=113	=113	=113	=113
2D	2A	2d	2f
2C	2.c	2e	2.a
1E	.	1c	.
.	4B-	.	4g
.	2G	.	[2g
=114	=114	=114	=114
1D	1A	2.d	2g]
.	.	.	2f#Xi
.	.	4c	.
1G	1G	4B-	[1g
.	.	4A	.
.	.	2B-	.
=115	=115	=115	=115
1r	1r	1G	1g]
2G	2B-	1r	1r
2A	2c	.	.
=116	=116	=116	=116
1G	1d	0r	0r
2F	2d	.	.
2E	2c#Xi	.	.
=117	=117	=117	=117
1D	1d	1r	1r
1r	1r	2g	2b-
.	.	2a	2cc
=118	=118	=118	=118
0r	0r	1g	1dd
.	.	2f	2dd
.	.	2e	2cc#Xi
=119	=119	=119	=119
1r	1r	1d	1dd
2.G	2.d	1r	1r
4G	4d	.	.
=120	=120	=120	=120
2B-	2d	0r	0r
2B-	2d	.	.
2A	2c	.	.
2G	2d	.	.
=121	=121	=121	=121
1F	1f	0r	0r
2G	2e	.	.
2F	[2d	.	.
=122	=122	=122	=122
1E	4d]	2r	1r
.	4c#Xi	.	.
.	4c#Xi	2g	.
.	4Bni	.	.
1D	1d	1a	2r
.	.	.	2dd
=123	=123	=123	=123
1r	0r	2g	1dd
.	.	2f	.
2r	.	2.e	2cc
2G	.	.	2b-
.	.	4d	.
=124	=124	=124	=124
1A	0r	1c	2.a
.	.	.	4g
1B-	.	2r	1f
.	.	2d	.
=125	=125	=125	=125
1G	1r	1e	2r
.	.	.	2g
1r	2r	1f	1a
.	[2d	.	.
=126	=126	=126	=126
1G	2d]	1d	1b-
.	1B-	.	.
1E	.	1r	1g
.	[2c	.	.
=127	=127	=127	=127
1F	4c]	2r	0a
.	4B-	.	.
.	1A	1f	.
1D	.	.	.
.	4G	2d	.
.	4F	.	.
=128	=128	=128	=128
2r	2A	1e	0cc
2.C	2.G	.	.
.	.	1c	.
4D	4F	.	.
4E	4G	.	.
4F	4A	.	.
=129	=129	=129	=129
1G	4B-	2r	1b-
.	4c	.	.
.	1d	2G	.
2D	.	4A	2a
.	.	4B-	.
2E	2G	2c	[2g
=130	=130	=130	=130
1D	1A	1d	2g]
.	.	.	2f#Xi
[1G	[1B-	[1d	1g
=131	=131	=131	=131
1G]	2B-]	1d]	1r
.	4A	.	.
.	4G	.	.
1r	1G	2r	1dd
.	.	2d	.
=132	=132	=132	=132
0r	0r	2f	2dd
.	.	2g	2dd
.	.	1a	1cc
=133	=133	=133	=133
1B-	1d	0r	0r
2A	2c	.	.
2G	2B-	.	.
=134	=134	=134	=134
1F	1A	0r	0r
2r	1d	.	.
2D	.	.	.
=135	=135	=135	=135
2F	2d	0r	0r
2G	2d	.	.
1A	1c	.	.
=136	=136	=136	=136
0r	0r	1b-	1dd
.	.	2a	2cc
.	.	2g	2b-
=137	=137	=137	=137
0r	0r	1f	1a
.	.	2r	1dd
.	.	2d	.
=138	=138	=138	=138
0r	0r	2f	2dd
.	.	2g	2dd
.	.	1a	1cc
=139	=139	=139	=139
1B-	1d	0r	0r
2A	2c	.	.
2G	2B-	.	.
=140	=140	=140	=140
1F	1A	0r	0r
2r	1d	.	.
2D	.	.	.
=141	=141	=141	=141
2F	2d	0r	0r
2G	2d	.	.
1A	1c	.	.
=142	=142	=142	=142
0r	0r	1b-	1dd
.	.	2a	2cc
.	.	2g	2b-
=143	=143	=143	=143
0r	0r	1f	2.a
.	.	.	4b-
.	.	2e	2cc
.	.	[2f	[2dd
=144	=144	=144	=144
*M3/1	*	*	*
*met(C|3)	*	*	*
3%2D	0r	2f]	2dd]
.	.	4e	4cc
3%2F	.	.	.
.	.	4d	4b-
.	.	4c	4a
.	.	4B-	4g
3%2F	.	.	.
.	.	2c	2a
=145	=145	=145	=145
*	*M3/1	*M3/1	*M3/1
*	*met(3)	*met(C|3)	*met(3)
!!primary-mensuration: met(C|3)
0G	1G	0B-	0b-
.	1B-	.	.
1A	1c	1r	1r
=146	=146	=146	=146
1F	0d	0.r	0.r
0E	.	.	.
.	1c	.	.
=147	=147	=147	=147
0.D	1B-	1d	0.r
.	0A	1f	.
.	.	1f	.
=148	=148	=148	=148
0.r	0G	0g	1g
.	.	.	1b-
.	1r	1a	1cc
=149	=149	=149	=149
0.r	0.r	1f	0dd
.	.	0e	.
.	.	.	1cc
=150	=150	=150	=150
1G	0.r	0d	1b-
1D	.	.	0a
1D	.	1f	.
=151	=151	=151	=151
0G	1G	1e	0g
.	1B-	1d	.
1F	1c	1f	1a
=152	=152	=152	=152
1.B-	0d	1r	2g
.	.	.	2f
.	.	1.f	1b-
2A	.	.	.
1F	1c	.	1a
.	.	2e	.
=153	=153	=153	=153
1G	1B-	2d	0g
.	.	2c	.
0D	0A	0d	.
.	.	.	1f#Xi
=154	=154	=154	=154
*M2/1	*M2/1	*M2/1	*M2/1
*met(C|)	*met(C|)	*met(C|)	*met(C|)
1G	1G	1.d	1g
2r	1G	.	1b-
2G	.	2e	.
=155	=155	=155	=155
2F	1c	2f	2a
2E	.	2g	2.cc
1C	1c	1e	.
.	.	.	4b-
.	.	.	4a
.	.	.	4g
=156	=156	=156	=156
1.D	1A	1.d	1f
.	2B-	.	2f
2F	2A	2c	[2a
=157	=157	=157	=157
2E-X	2B-	1e-Xi	4a]
.	.	.	4g
2C	2c	.	1g
1D	1A	1d	.
.	.	.	2f#Xi
=158	=158	=158	=158
0Gl	0Gl	0dl	0gl
==	==	==	==
*-	*-	*-	*-
!!!RDF**kern: l=long note in original notation
!!!system-decoration: s1,s2,s3,s4
!!!RDF**kern: i = editorial accidental
!!!ENC: Chris Gage 04-23-2014
!!!END: 2020/10/21/
!!!EED: Jesse Rodin
!!!EEV: 2020/10/23/
!!attribution-level@Jos: 4b (almost certainly by another composer [double question mark])
!!!ONB: Translated from MusicXML and edited on 2021/03/22 by Craig Sapp
!!muse2ps: C^probably by Mouton, Jean\n@{SCT} (attrib. Josquin in Verona 760)^i2I150v85,85,85,150c110
